svg/diff-ignored.svg

<svg height="1024" width="896" xmlns="http://www.w3.org/2000/svg">
  <path d="M832 64h-768c-32 0-64 32-64 64v768c0 32 32 64 64 64h768c32 0 64-32 64-64v-768c0-32-32-64-64-64z m-64 736c0 16-17 32-32 32h-576c-18 0-32-12-32-32v-576c0-16 16-32 32-32h576c15 0 32 16 32 32v576z m-512-194v98h98l286-286v-98h-98l-286 286z" />
</svg>

<svg height="1024" width="896" xmlns="http://www.w3.org/2000/svg">
  <path d="M832 64H64C0 64 0 128 0 128v768c0 0 0 64 64 64 0 0 704 0 768 0s64-64 64-64V128C896 128 896 64 832 64zM768 800c0 32-32 32-32 32H160c0 0-32 0-32-32V224c0-32 32-32 32-32h576c0 0 32 0 32 32C768 224 768 773.25 768 800zM256 606v98h98l286-286v-98h-98L256 606z" />
</svg>
